assets/symbols/mulberry/graph_column.svg

<svg height="850.394" viewBox="0 0 850.394 850.394" width="850.394" xmlns="http://www.w3.org/2000/svg"><path d="m602.096 408.036h119.642v366.332h-119.642z" fill="#9e5c26"/><path d="m481.927 656.542h119.651v119.651h-119.651z" fill="#8c469b"/><path d="m361.631 534.136h119.652v239.293h-119.652z" fill="#a9d7f3"/><path d="m241.335 175.359h119.652v598.239h-119.652z" fill="#ed1d31"/><path d="m121.039 322.035h119.652v452.902h-119.652z" fill="#fbee34"/><g fill="none"><g stroke="#231f20"><path d="m739.401 776.837h-626.803v-681.675" stroke-width="22.16"/><path d="m121.039 322.035h119.652v452.902h-119.652zm120.296-146.676h119.652v598.239h-119.652zm120.296 358.777h119.652v239.293h-119.652zm120.296 122.406h119.651v119.651h-119.651zm120.169-248.506h119.642v366.332h-119.642z" stroke-width="7.387"/></g><path d="m0 0h850.394v850.394h-850.394z"/></g></svg>

<svg xmlns="http://www.w3.org/2000/svg" width="850.394" height="850.394" viewBox="0 0 850.394 850.394" overflow="visible"><path fill="#9e5c26" d="M602.096 408.036h119.642v366.332H602.096z"/><path fill="#8c469b" d="M481.927 656.542h119.651v119.651H481.927z"/><path fill="#a9d7f3" d="M361.631 534.136h119.652v239.293H361.631z"/><path fill="#ed1d31" d="M241.335 175.359h119.652v598.239H241.335z"/><path fill="#fbee34" d="M121.039 322.035h119.652v452.902H121.039z"/><g fill="none" stroke="#231f20"><path stroke-width="22.16" d="M739.401 776.837H112.598V95.162"/><path stroke-width="7.387" d="M121.039 322.035h119.652v452.902H121.039zM241.335 175.359h119.652v598.239H241.335zM361.631 534.136h119.652v239.293H361.631zM481.927 656.542h119.651v119.651H481.927zM602.096 408.036h119.642v366.332H602.096z"/></g><path fill="none" d="M0 0h850.394v850.394H0z"/></svg>
